src/16/mimetypes/text-x-c++hdr.svg

<svg width="16" xmlns="http://www.w3.org/2000/svg" height="16" viewBox="0 0 16 16">
 <path fill="#913d88" d="m2 2v12h1v-3.5c0-1.385 1.115-2.5 2.5-2.5 1.385 0 2.5 1.115 2.5 2.5v3.5h1v-3.5c0-1.939-1.561-3.5-3.5-3.5-.983 0-1.865.404-2.5 1.053v-6.05zm6 0v1h-1v1h1v1h1v-1h1v-1h-1v-1zm4 0v1h-1v1h1v1h1v-1h1v-1h-1v-1z"/>
</svg>

<svg width="16" xmlns="http://www.w3.org/2000/svg" height="16"><path fill="#913d88" d="M2 2v12h1v-3.5C3 9.115 4.115 8 5.5 8S8 9.115 8 10.5V14h1v-3.5C9 8.561 7.439 7 5.5 7c-.983 0-1.865.404-2.5 1.053v-6.05zm6 0v1H7v1h1v1h1V4h1V3H9V2zm4 0v1h-1v1h1v1h1V4h1V3h-1V2z"/></svg>
